assets/Headphone/Flat/headphone_flat.svg

<svg width="32" height="32" viewBox="0 0 32 32" fill="none" xmlns="http://www.w3.org/2000/svg">
<path d="M5.99032 29.1445L4.05032 22.9645C3.89032 22.4345 4.12031 21.8545 4.62031 21.5745L7.14032 20.2045L10.0903 29.6345L7.24032 29.9545C6.68032 30.0245 6.16032 29.6845 5.99032 29.1445Z" fill="#998EA4"/>
<path d="M26.5702 29.1445L28.5102 22.9645C28.6802 22.4345 28.4502 21.8545 27.9402 21.5745L25.4202 20.2045L22.4702 29.6345L25.3202 29.9545C25.8802 30.0245 26.4002 29.6845 26.5702 29.1445Z" fill="#998EA4"/>
<path d="M26.7201 16.1106C26.6201 16.4106 26.7501 16.7406 27.0201 16.8906C28.0601 17.4406 28.4601 18.7106 27.9401 19.7806L27.3801 20.9106C27.2501 21.1806 26.9801 21.3306 26.7001 21.3306C26.5601 21.3306 26.4101 21.2806 26.2701 21.1906C25.9501 20.9806 25.8601 20.5406 26.0301 20.2006L26.5801 19.1006C26.7401 18.7806 26.6001 18.4106 26.2901 18.2406C25.3801 17.7406 24.9501 16.6506 25.2701 15.6506C25.5601 14.7406 25.7101 13.7806 25.7101 12.8106V12.7906C25.7101 11.6806 25.4101 10.5906 24.8501 9.64058C23.1301 6.71058 19.9401 4.7506 16.3001 4.7506C12.6501 4.7506 9.47007 6.71058 7.74007 9.64058C7.18007 10.5906 6.88007 11.6806 6.88007 12.7906V12.8106C6.88007 13.7806 7.03007 14.7406 7.32007 15.6506C7.65007 16.6606 7.22007 17.7406 6.30007 18.2406C5.99007 18.4106 5.85006 18.7806 6.01006 19.1006L6.56006 20.2006C6.73006 20.5406 6.64007 20.9706 6.32007 21.1906C6.19007 21.2906 6.04006 21.3306 5.89006 21.3306C5.61006 21.3306 5.34007 21.1806 5.21007 20.9106L4.65006 19.7806C4.12006 18.7206 4.53007 17.4606 5.57007 16.9006C5.84007 16.7606 5.97006 16.4306 5.87006 16.1206C5.44006 14.7906 5.28007 13.4006 5.38007 11.9906C5.57007 9.42059 6.69006 7.00059 8.50006 5.18059C10.5701 3.09059 13.3401 1.9706 16.2801 2.0006H16.3001C19.2201 1.9706 21.9501 3.07058 24.0201 5.11058C26.1001 7.15058 27.2401 9.89059 27.2401 12.8006C27.2401 13.9306 27.0601 15.0406 26.7201 16.1106Z" fill="#CDC4D6"/>
<path d="M9.58021 18.3745L7.65021 18.9745C7.12021 19.1445 6.83022 19.7045 6.99022 20.2345L9.92021 29.6045C10.0902 30.1345 10.6502 30.4245 11.1802 30.2645L13.1102 29.6645C13.6402 29.4945 13.9302 28.9345 13.7702 28.4045L10.8402 19.0345C10.6802 18.5045 10.1102 18.2145 9.58021 18.3745Z" fill="#CDC4D6"/>
<path d="M22.9803 18.3745L24.9103 18.9745C25.4403 19.1445 25.7303 19.7045 25.5703 20.2345L22.6403 29.6045C22.4703 30.1345 21.9103 30.4245 21.3803 30.2645L19.4503 29.6645C18.9203 29.4945 18.6303 28.9345 18.7903 28.4045L21.7203 19.0345C21.8903 18.5045 22.4503 18.2145 22.9803 18.3745Z" fill="#CDC4D6"/>
</svg>

<svg xmlns="http://www.w3.org/2000/svg" width="32" height="32" fill="none"><path fill="#998EA4" d="m5.99 29.145-1.94-6.18c-.16-.53.07-1.11.57-1.39l2.52-1.37 2.95 9.43-2.85.32c-.56.07-1.08-.27-1.25-.81ZM26.57 29.145l1.94-6.18c.17-.53-.06-1.11-.57-1.39l-2.52-1.37-2.95 9.43 2.85.32c.56.07 1.08-.27 1.25-.81Z"/><path fill="#CDC4D6" d="M26.72 16.11c-.1.3.03.63.3.78 1.04.55 1.44 1.82.92 2.89l-.56 1.13c-.13.27-.4.42-.68.42-.14 0-.29-.05-.43-.14-.32-.21-.41-.65-.24-.99l.55-1.1c.16-.32.02-.69-.29-.86-.91-.5-1.34-1.59-1.02-2.59.29-.91.44-1.87.44-2.84v-.02c0-1.11-.3-2.2-.86-3.15a9.902 9.902 0 0 0-8.55-4.89c-3.65 0-6.83 1.96-8.56 4.89-.56.95-.86 2.04-.86 3.15v.02c0 .97.15 1.93.44 2.84.33 1.01-.1 2.09-1.02 2.59-.31.17-.45.54-.29.86l.55 1.1c.17.34.08.77-.24.99-.13.1-.28.14-.43.14-.28 0-.55-.15-.68-.42l-.56-1.13c-.53-1.06-.12-2.32.92-2.88.27-.14.4-.47.3-.78A10.812 10.812 0 0 1 8.5 5.18c2.07-2.09 4.84-3.21 7.78-3.18h.02c2.92-.03 5.65 1.07 7.72 3.11 2.08 2.04 3.22 4.78 3.22 7.69 0 1.13-.18 2.24-.52 3.31Z"/><path fill="#CDC4D6" d="m9.58 18.375-1.93.6c-.53.17-.82.73-.66 1.26l2.93 9.37c.17.53.73.82 1.26.66l1.93-.6c.53-.17.82-.73.66-1.26l-2.93-9.37c-.16-.53-.73-.82-1.26-.66ZM22.98 18.375l1.93.6c.53.17.82.73.66 1.26l-2.93 9.37c-.17.53-.73.82-1.26.66l-1.93-.6c-.53-.17-.82-.73-.66-1.26l2.93-9.37c.17-.53.73-.82 1.26-.66Z"/></svg>
